Public/img/gitignoreio.svg

<svg width="400" height="75" xmlns="http://www.w3.org/2000/svg">
  <g fill="#204ECF" fill-rule="evenodd">
    <path d="M27.7072 45.707L31 49 23.0002 57 21 54.9999v-2.5857l6.7072-6.7072zM18.9999 45v8L15 49l4-4zm7.293-.7072L21 49.5858v-6.586L23.0002 41l3.2928 3.2928zM68.528 23.264c-3.072 1.824-6.336 3.408-12 3.264-6.672 0-11.376 3.552-11.376 9.312 0 3.312 1.296 5.568 4.512 7.296-1.824 1.152-2.832 2.976-2.832 4.848 0 2.688 2.304 5.04 7.872 5.04h4.032c2.544 0 3.696 1.056 3.696 2.544 0 1.68-1.104 2.928-5.904 2.928-4.848 0-5.808-1.008-5.808-3.216H44c0 5.04 2.544 8.208 12.336 8.208 9.024 0 13.632-3.216 13.632-8.448 0-4.272-3.792-7.392-9.696-7.392h-4.224c-2.448 0-2.784-.768-2.784-1.536 0-.576.288-1.152.816-1.44.912.192 1.872.288 2.976.288 6.576 0 10.8-3.6 10.8-8.544 0-3.312-1.728-5.184-4.944-6.576 3.216 0 5.568-.288 7.344-1.008l-1.728-5.568zM56.72 31.472c2.544 0 3.888 1.344 3.888 4.176 0 2.928-1.392 4.464-3.888 4.464-2.352 0-3.888-1.584-3.888-4.368 0-2.64 1.488-4.272 3.888-4.272zM85.664 14c-2.64 0-4.512 1.872-4.512 4.272 0 2.448 1.872 4.272 4.512 4.272 2.64 0 4.464-1.824 4.464-4.272 0-2.4-1.824-4.272-4.464-4.272zm4.56 13.344H75.68v5.184h6.96v15.12h-7.2v5.184h21.312v-5.184h-6.528V27.344zM126.416 51.344l-2.496-4.848c-1.2.672-2.688 1.152-4.464 1.152-2.544 0-3.648-.96-3.648-3.504V32.576h7.44l.768-5.232h-8.208v-6.432l-7.584.912v5.52h-5.328v5.232h5.328v11.568c0 5.856 3.168 9.504 9.84 9.504 3.504 0 6.336-1.008 8.352-2.304zM143.264 14c-2.64 0-4.512 1.872-4.512 4.272 0 2.448 1.872 4.272 4.512 4.272 2.64 0 4.464-1.824 4.464-4.272 0-2.4-1.824-4.272-4.464-4.272zm4.56 13.344H133.28v5.184h6.96v15.12h-7.2v5.184h21.312v-5.184h-6.528V27.344zM183.728 23.264c-3.072 1.824-6.336 3.408-12 3.264-6.672 0-11.376 3.552-11.376 9.312 0 3.312 1.296 5.568 4.512 7.296-1.824 1.152-2.832 2.976-2.832 4.848 0 2.688 2.304 5.04 7.872 5.04h4.032c2.544 0 3.696 1.056 3.696 2.544 0 1.68-1.104 2.928-5.904 2.928-4.848 0-5.808-1.008-5.808-3.216h-6.72c0 5.04 2.544 8.208 12.336 8.208 9.024 0 13.632-3.216 13.632-8.448 0-4.272-3.792-7.392-9.696-7.392h-4.224c-2.448 0-2.784-.768-2.784-1.536 0-.576.288-1.152.816-1.44.912.192 1.872.288 2.976.288 6.576 0 10.8-3.6 10.8-8.544 0-3.312-1.728-5.184-4.944-6.576 3.216 0 5.568-.288 7.344-1.008l-1.728-5.568zm-11.808 8.208c2.544 0 3.888 1.344 3.888 4.176 0 2.928-1.392 4.464-3.888 4.464-2.352 0-3.888-1.584-3.888-4.368 0-2.64 1.488-4.272 3.888-4.272zM189.872 52.832h7.584V35.024c1.44-1.824 2.832-2.928 4.464-2.928 1.872 0 2.448 1.056 2.448 4.224v16.512h7.584v-18.72c0-4.848-2.64-7.632-7.008-7.632-3.264 0-5.664 1.248-7.92 3.792l-.528-2.928h-6.624v25.488zM229.712 26.48c-7.824 0-12.384 5.472-12.384 13.584 0 8.592 4.56 13.584 12.384 13.584 7.824 0 12.384-5.088 12.384-13.632 0-8.16-4.512-13.536-12.384-13.536zm0 5.616c3.12 0 4.56 2.4 4.56 7.92 0 5.712-1.44 8.064-4.56 8.064-3.12 0-4.56-2.352-4.56-8.016 0-5.568 1.44-7.968 4.56-7.968zM266.912 26.576c-4.08 0-6.864 2.112-8.688 6.48l-1.344-5.712h-9.168v5.04h3.36v15.36h-3.36v5.088h15.984v-5.088h-5.04v-7.296c1.152-3.792 3.408-6.624 6.288-7.104V38h4.8l1.392-10.656c-1.2-.48-2.496-.768-4.224-.768zM282.848 42.32h16.512c.096-.768.144-1.872.144-2.736 0-8.208-4.656-13.104-11.952-13.104-8.016 0-12.432 6.096-12.432 13.632 0 7.92 4.512 13.536 13.248 13.536 4.32 0 7.776-1.44 10.176-3.504l-3.024-4.128c-2.016 1.296-4.224 2.112-6.528 2.112-3.264 0-5.616-1.632-6.144-5.808zm4.704-10.752c3.216 0 4.512 2.448 4.56 6.144h-9.36c.336-4.224 2.112-6.144 4.8-6.144zM312.176 49.376c0 2.256 1.632 3.936 3.888 3.936 2.256 0 3.888-1.68 3.888-3.936 0-2.16-1.632-3.84-3.888-3.84-2.256 0-3.888 1.68-3.888 3.84zM344.912 16.256c-1.44 0-2.4 1.008-2.4 2.352 0 1.44.96 2.448 2.4 2.448 1.536 0 2.544-1.008 2.544-2.448 0-1.344-1.008-2.352-2.544-2.352zm2.832 11.376H337.04v2.592h7.728V50.24H336.8v2.592h18.24V50.24h-7.296V27.632zM373.76 27.152c-6.912 0-10.464 5.424-10.464 13.104 0 7.776 3.504 13.056 10.416 13.056 6.864 0 10.416-5.568 10.416-13.104 0-7.92-3.456-13.056-10.368-13.056zm0 2.64c4.704 0 7.104 3.36 7.104 10.416 0 7.056-2.4 10.464-7.152 10.464-4.752 0-7.152-3.408-7.152-10.416 0-7.104 2.496-10.464 7.2-10.464z"/>
  </g>
</svg>

<?xml version="1.0" encoding="UTF-8"?>
<svg width="400px" height="75px" viewBox="0 0 400 75" version="1.1" xmlns="http://www.w3.org/2000/svg" xmlns:xlink="http://www.w3.org/1999/xlink">
    <!-- Generator: Sketch 52.6 (67491) - http://www.bohemiancoding.com/sketch -->
    <title>gitignore.io</title>
    <desc>Created with Sketch.</desc>
    <g id="gitignore.io" stroke="none" stroke-width="1" fill="none" fill-rule="evenodd">
        <path d="M27.7071794,45.7070294 L31,48.99985 L23.00015,57 L21.0000375,54.9998875 L21.0000375,52.4141713 L27.7071794,45.7070294 Z M18.999925,44.999925 L18.999925,53.000075 L15,48.99985 L18.999925,44.999925 Z M26.2929706,44.2928206 L21.0000375,49.5857537 L21.0000375,42.9998125 L23.00015,41 L26.2929706,44.2928206 Z" id="Page-1" fill="#FF6600"></path>
        <path d="M68.528,23.264 C65.456,25.088 62.192,26.672 56.528,26.528 C49.856,26.528 45.152,30.08 45.152,35.84 C45.152,39.152 46.448,41.408 49.664,43.136 C47.84,44.288 46.832,46.112 46.832,47.984 C46.832,50.672 49.136,53.024 54.704,53.024 L58.736,53.024 C61.28,53.024 62.432,54.08 62.432,55.568 C62.432,57.248 61.328,58.496 56.528,58.496 C51.68,58.496 50.72,57.488 50.72,55.28 L44,55.28 C44,60.32 46.544,63.488 56.336,63.488 C65.36,63.488 69.968,60.272 69.968,55.04 C69.968,50.768 66.176,47.648 60.272,47.648 L56.048,47.648 C53.6,47.648 53.264,46.88 53.264,46.112 C53.264,45.536 53.552,44.96 54.08,44.672 C54.992,44.864 55.952,44.96 57.056,44.96 C63.632,44.96 67.856,41.36 67.856,36.416 C67.856,33.104 66.128,31.232 62.912,29.84 C66.128,29.84 68.48,29.552 70.256,28.832 L68.528,23.264 Z M56.72,31.472 C59.264,31.472 60.608,32.816 60.608,35.648 C60.608,38.576 59.216,40.112 56.72,40.112 C54.368,40.112 52.832,38.528 52.832,35.744 C52.832,33.104 54.32,31.472 56.72,31.472 Z" id="Fill-1" fill="#000000"></path>
        <path d="M85.664,14 C83.024,14 81.152,15.872 81.152,18.272 C81.152,20.72 83.024,22.544 85.664,22.544 C88.304,22.544 90.128,20.72 90.128,18.272 C90.128,15.872 88.304,14 85.664,14 Z M90.224,27.344 L75.68,27.344 L75.68,32.528 L82.64,32.528 L82.64,47.648 L75.44,47.648 L75.44,52.832 L96.752,52.832 L96.752,47.648 L90.224,47.648 L90.224,27.344 Z" id="Fill-2" fill="#000000"></path>
        <path d="M126.416,51.344 L123.92,46.496 C122.72,47.168 121.232,47.648 119.456,47.648 C116.912,47.648 115.808,46.688 115.808,44.144 L115.808,32.576 L123.248,32.576 L124.016,27.344 L115.808,27.344 L115.808,20.912 L108.224,21.824 L108.224,27.344 L102.896,27.344 L102.896,32.576 L108.224,32.576 L108.224,44.144 C108.224,50 111.392,53.648 118.064,53.648 C121.568,53.648 124.4,52.64 126.416,51.344 Z" id="Fill-3" fill="#000000"></path>
        <path d="M143.264,14 C140.624,14 138.752,15.872 138.752,18.272 C138.752,20.72 140.624,22.544 143.264,22.544 C145.904,22.544 147.728,20.72 147.728,18.272 C147.728,15.872 145.904,14 143.264,14 Z M147.824,27.344 L133.28,27.344 L133.28,32.528 L140.24,32.528 L140.24,47.648 L133.04,47.648 L133.04,52.832 L154.352,52.832 L154.352,47.648 L147.824,47.648 L147.824,27.344 Z" id="Fill-4" fill="#000000"></path>
        <path d="M183.728,23.264 C180.656,25.088 177.392,26.672 171.728,26.528 C165.056,26.528 160.352,30.08 160.352,35.84 C160.352,39.152 161.648,41.408 164.864,43.136 C163.04,44.288 162.032,46.112 162.032,47.984 C162.032,50.672 164.336,53.024 169.904,53.024 L173.936,53.024 C176.48,53.024 177.632,54.08 177.632,55.568 C177.632,57.248 176.528,58.496 171.728,58.496 C166.88,58.496 165.92,57.488 165.92,55.28 L159.2,55.28 C159.2,60.32 161.744,63.488 171.536,63.488 C180.56,63.488 185.168,60.272 185.168,55.04 C185.168,50.768 181.376,47.648 175.472,47.648 L171.248,47.648 C168.8,47.648 168.464,46.88 168.464,46.112 C168.464,45.536 168.752,44.96 169.28,44.672 C170.192,44.864 171.152,44.96 172.256,44.96 C178.832,44.96 183.056,41.36 183.056,36.416 C183.056,33.104 181.328,31.232 178.112,29.84 C181.328,29.84 183.68,29.552 185.456,28.832 L183.728,23.264 Z M171.92,31.472 C174.464,31.472 175.808,32.816 175.808,35.648 C175.808,38.576 174.416,40.112 171.92,40.112 C169.568,40.112 168.032,38.528 168.032,35.744 C168.032,33.104 169.52,31.472 171.92,31.472 Z" id="Fill-5" fill="#000000"></path>
        <path d="M189.872,52.832 L197.456,52.832 L197.456,35.024 C198.896,33.2 200.288,32.096 201.92,32.096 C203.792,32.096 204.368,33.152 204.368,36.32 L204.368,52.832 L211.952,52.832 L211.952,34.112 C211.952,29.264 209.312,26.48 204.944,26.48 C201.68,26.48 199.28,27.728 197.024,30.272 L196.496,27.344 L189.872,27.344 L189.872,52.832 Z" id="Fill-6" fill="#000000"></path>
        <path d="M229.712,26.48 C221.888,26.48 217.328,31.952 217.328,40.064 C217.328,48.656 221.888,53.648 229.712,53.648 C237.536,53.648 242.096,48.56 242.096,40.016 C242.096,31.856 237.584,26.48 229.712,26.48 Z M229.712,32.096 C232.832,32.096 234.272,34.496 234.272,40.016 C234.272,45.728 232.832,48.08 229.712,48.08 C226.592,48.08 225.152,45.728 225.152,40.064 C225.152,34.496 226.592,32.096 229.712,32.096 Z" id="Fill-7" fill="#000000"></path>
        <path d="M266.912,26.576 C262.832,26.576 260.048,28.688 258.224,33.056 L256.88,27.344 L247.712,27.344 L247.712,32.384 L251.072,32.384 L251.072,47.744 L247.712,47.744 L247.712,52.832 L263.696,52.832 L263.696,47.744 L258.656,47.744 L258.656,40.448 C259.808,36.656 262.064,33.824 264.944,33.344 L264.944,38 L269.744,38 L271.136,27.344 C269.936,26.864 268.64,26.576 266.912,26.576 Z" id="Fill-8" fill="#000000"></path>
        <path d="M282.848,42.32 L299.36,42.32 C299.456,41.552 299.504,40.448 299.504,39.584 C299.504,31.376 294.848,26.48 287.552,26.48 C279.536,26.48 275.12,32.576 275.12,40.112 C275.12,48.032 279.632,53.648 288.368,53.648 C292.688,53.648 296.144,52.208 298.544,50.144 L295.52,46.016 C293.504,47.312 291.296,48.128 288.992,48.128 C285.728,48.128 283.376,46.496 282.848,42.32 Z M287.552,31.568 C290.768,31.568 292.064,34.016 292.112,37.712 L282.752,37.712 C283.088,33.488 284.864,31.568 287.552,31.568 Z" id="Fill-9" fill="#000000"></path>
        <path d="M312.176,49.376 C312.176,51.632 313.808,53.312 316.064,53.312 C318.32,53.312 319.952,51.632 319.952,49.376 C319.952,47.216 318.32,45.536 316.064,45.536 C313.808,45.536 312.176,47.216 312.176,49.376 Z" id="Fill-10" fill="#000000"></path>
        <path d="M344.912,16.256 C343.472,16.256 342.512,17.264 342.512,18.608 C342.512,20.048 343.472,21.056 344.912,21.056 C346.448,21.056 347.456,20.048 347.456,18.608 C347.456,17.264 346.448,16.256 344.912,16.256 Z M347.744,27.632 L337.04,27.632 L337.04,30.224 L344.768,30.224 L344.768,50.24 L336.8,50.24 L336.8,52.832 L355.04,52.832 L355.04,50.24 L347.744,50.24 L347.744,27.632 Z" id="Fill-11" fill="#000000"></path>
        <path d="M373.76,27.152 C366.848,27.152 363.296,32.576 363.296,40.256 C363.296,48.032 366.8,53.312 373.712,53.312 C380.576,53.312 384.128,47.744 384.128,40.208 C384.128,32.288 380.672,27.152 373.76,27.152 Z M373.76,29.792 C378.464,29.792 380.864,33.152 380.864,40.208 C380.864,47.264 378.464,50.672 373.712,50.672 C368.96,50.672 366.56,47.264 366.56,40.256 C366.56,33.152 369.056,29.792 373.76,29.792 Z" id="Fill-12" fill="#000000"></path>
    </g>
</svg>
